shelter/assets/icons/mail.svg

<svg fill="none" height="26" viewBox="0 0 40 26" width="40" xmlns="http://www.w3.org/2000/svg"><g fill="#f1cdb3"><path d="m39.3151 0h-38.630105c-.181664 0-.355887.0732456-.484343.203625-.1284558.130378-.20062148.307211-.20062148.491594v24.609581c0 .1844.07216568.3612.20062148.4916.128456.1304.302679.2036.484343.2036h38.630105c.1816 0 .3559-.0732.4843-.2036.1285-.1304.2006-.3072.2006-.4916v-24.609581c0-.184383-.0721-.361216-.2006-.491594-.1284-.1303794-.3027-.203625-.4843-.203625zm-6.7376 15.0331c.1071.4928.2179 1.0024.0739 1.2551-.1547.2714-.6548.4291-1.1383.5817-.3814.1203-.7758.2448-1.1273.4513-.3397.1994-.6335.4789-.9175.7492-.3911.3722-.7604.7236-1.0943.7236-.334 0-.7033-.3515-1.0943-.7236-.284-.2703-.5778-.5499-.9175-.7492-.3515-.2065-.7459-.3309-1.1274-.4513-.4834-.1526-.9835-.3103-1.1381-.5817-.1441-.2527-.0333-.7623.0738-1.2551.088-.4046.1788-.8228.1788-1.251 0-.4281-.0908-.8465-.1788-1.251-.1071-.4928-.2179-1.0023-.0738-1.2552.1546-.2713.6547-.4291 1.1381-.5817.3815-.1203.7759-.2448 1.1274-.4512.3397-.1995.6335-.47897.9175-.74927.391-.37208.7603-.72358 1.0943-.72358.3339 0 .7033.3515 1.0943.72358.284.2703.5778.54977.9175.74927.3515.2063.7459.3308 1.1273.4511.4835.1526.9836.3104 1.1382.5817.1441.2528.0333.7623-.0738 1.2551-.088.4045-.1788.8228-.1788 1.251 0 .4283.0908.8467.1788 1.2512zm-1.9799-6.37234c-.063-.05839-.1271-.1192-.1923-.18121-.5149-.49-1.1556-1.09975-2.0313-1.09975-.8758 0-1.5165.60975-2.0313 1.09975-.2381.22654-.4631.44058-.6666.56006-.2187.12839-.5243.22488-.8479.32694-.7006.22108-1.4945.47155-1.9173 1.21315-.4108.7207-.2341 1.5337-.0781 2.251.0754.347.1466.6748.1466.9514s-.0712.6045-.1466.9515c-.1352.622-.2855 1.316-.0552 1.9594l-2.7779 2.8534-17.67517-18.15596h35.35027zm-18.8969 4.33924-10.33074 10.6116v-21.22348zm.9629.989 6.8488 7.0352c.0637.0654.1396.1174.2232.1528.0836.0355.1734.0538.264.0538.0907 0 .1804-.0183.264-.0538.0837-.0354.1595-.0874.2233-.1528l3.1973-3.2844c.3598.2096.7653.3383 1.144.4578.3236.1021.6293.1986.8479.3269.2035.1195.4284.3336.6666.5601.5148.49 1.1555 1.0998 2.0313 1.0998.8756 0 1.5164-.6098 2.0313-1.0998.2381-.2266.463-.4406.6665-.5602.1326-.0778.2973-.1438.4784-.2065l6.1248 6.2915h-35.35066zm20.3028 3.8056c.3454-.1838.656-.4334.8707-.81.4108-.7207.2341-1.5338.0781-2.251-.0754-.347-.1466-.6749-.1466-.9515s.0712-.6044.1466-.9514c.156-.7173.3327-1.5302-.0782-2.251-.4228-.7416-1.2167-.99207-1.9173-1.21315l-.0638-.02021 6.7742-6.95896v21.22482z"/><path d="m28.374 10.2424c-1.923 0-3.4875 1.5878-3.4875 3.5396 0 1.9517 1.5645 3.5395 3.4875 3.5395s3.4875-1.5878 3.4875-3.5395c0-1.9518-1.5646-3.5396-3.4875-3.5396zm0 5.6887c-1.1675 0-2.1175-.9641-2.1175-2.1491 0-1.1851.9499-2.1492 2.1175-2.1492s2.1176.9641 2.1176 2.1492c0 1.185-.9501 2.1491-2.1176 2.1491z"/></g></svg>

<svg width="40" height="26" viewBox="0 0 40 26" fill="none" xmlns="http://www.w3.org/2000/svg">
<path d="M39.3151 0H0.684995C0.503331 0 0.329108 0.0732456 0.200652 0.203625C0.0721962 0.334003 3.05176e-05 0.510836 3.05176e-05 0.695219V25.3048C3.05176e-05 25.4892 0.0721962 25.666 0.200652 25.7964C0.329108 25.9268 0.503331 26 0.684995 26H39.3151C39.4967 26 39.671 25.9268 39.7994 25.7964C39.9279 25.666 40 25.4892 40 25.3048V0.695219C40 0.510836 39.9279 0.334003 39.7994 0.203625C39.671 0.0732456 39.4967 0 39.3151 0ZM32.5775 15.0331C32.6846 15.5259 32.7954 16.0355 32.6514 16.2882C32.4967 16.5596 31.9966 16.7173 31.5131 16.8699C31.1317 16.9902 30.7373 17.1147 30.3858 17.3212C30.0461 17.5206 29.7523 17.8001 29.4683 18.0704C29.0772 18.4426 28.7079 18.794 28.374 18.794C28.04 18.794 27.6707 18.4425 27.2797 18.0704C26.9957 17.8001 26.7019 17.5205 26.3622 17.3212C26.0107 17.1147 25.6163 16.9903 25.2348 16.8699C24.7514 16.7173 24.2513 16.5596 24.0967 16.2882C23.9526 16.0355 24.0634 15.5259 24.1705 15.0331C24.2585 14.6285 24.3493 14.2103 24.3493 13.7821C24.3493 13.354 24.2585 12.9356 24.1705 12.5311C24.0634 12.0383 23.9526 11.5288 24.0967 11.2759C24.2513 11.0046 24.7514 10.8468 25.2348 10.6942C25.6163 10.5739 26.0107 10.4494 26.3622 10.243C26.7019 10.0435 26.9957 9.76403 27.2797 9.49373C27.6707 9.12165 28.04 8.77015 28.374 8.77015C28.7079 8.77015 29.0773 9.12165 29.4683 9.49373C29.7523 9.76403 30.0461 10.0435 30.3858 10.243C30.7373 10.4493 31.1317 10.5738 31.5131 10.6941C31.9966 10.8467 32.4967 11.0045 32.6513 11.2758C32.7954 11.5286 32.6846 12.0381 32.5775 12.5309C32.4895 12.9354 32.3987 13.3537 32.3987 13.7819C32.3987 14.2102 32.4895 14.6286 32.5775 15.0331ZM30.5976 8.66076C30.5346 8.60237 30.4705 8.54156 30.4053 8.47955C29.8904 7.98955 29.2497 7.3798 28.374 7.3798C27.4982 7.3798 26.8575 7.98955 26.3427 8.47955C26.1046 8.70609 25.8796 8.92013 25.6761 9.03961C25.4574 9.168 25.1518 9.26449 24.8282 9.36655C24.1276 9.58763 23.3337 9.8381 22.9109 10.5797C22.5001 11.3004 22.6768 12.1134 22.8328 12.8307C22.9082 13.1777 22.9794 13.5055 22.9794 13.7821C22.9794 14.0587 22.9082 14.3866 22.8328 14.7336C22.6976 15.3556 22.5473 16.0496 22.7776 16.693L19.9997 19.5464L2.32453 1.39044H37.6748L30.5976 8.66076ZM11.7007 13L1.36996 23.6116V2.38812L11.7007 13ZM12.6636 13.989L19.5124 21.0242C19.5761 21.0896 19.652 21.1416 19.7356 21.177C19.8192 21.2125 19.909 21.2308 19.9996 21.2308C20.0903 21.2308 20.18 21.2125 20.2636 21.177C20.3473 21.1416 20.4231 21.0896 20.4869 21.0242L23.6842 17.7398C24.044 17.9494 24.4495 18.0781 24.8282 18.1976C25.1518 18.2997 25.4575 18.3962 25.6761 18.5245C25.8796 18.644 26.1045 18.8581 26.3427 19.0846C26.8575 19.5746 27.4982 20.1844 28.374 20.1844C29.2496 20.1844 29.8904 19.5746 30.4053 19.0846C30.6434 18.858 30.8683 18.644 31.0718 18.5244C31.2044 18.4466 31.3691 18.3806 31.5502 18.3179L37.675 24.6094H2.32434L12.6636 13.989ZM32.9664 17.7946C33.3118 17.6108 33.6224 17.3612 33.8371 16.9846C34.2479 16.2639 34.0712 15.4508 33.9152 14.7336C33.8398 14.3866 33.7686 14.0587 33.7686 13.7821C33.7686 13.5055 33.8398 13.1777 33.9152 12.8307C34.0712 12.1134 34.2479 11.3005 33.837 10.5797C33.4142 9.8381 32.6203 9.58763 31.9197 9.36655L31.8559 9.34634L38.6301 2.38738V23.6122L32.9664 17.7946Z" fill="#F1CDB3"/>
<path d="M28.374 10.2424C26.451 10.2424 24.8865 11.8302 24.8865 13.782C24.8865 15.7337 26.451 17.3215 28.374 17.3215C30.297 17.3215 31.8615 15.7337 31.8615 13.782C31.8615 11.8302 30.2969 10.2424 28.374 10.2424ZM28.374 15.9311C27.2065 15.9311 26.2565 14.967 26.2565 13.782C26.2565 12.5969 27.2064 11.6328 28.374 11.6328C29.5416 11.6328 30.4916 12.5969 30.4916 13.782C30.4916 14.967 29.5415 15.9311 28.374 15.9311Z" fill="#F1CDB3"/>
</svg>
